src/images/Roff/Process3.svg

<svg fill="none" height="200" viewBox="0 0 200 200" width="200" xmlns="http://www.w3.org/2000/svg"><rect fill="#b9d053" height="200" rx="20" width="200"/><path d="m152.791 41.3953h-104.6509c-6.3953 0-11.6279 5.2325-11.6279 11.6279v69.7678c0 6.395 5.2326 11.628 11.6279 11.628h40.6977l-11.6279 17.441v5.814h46.5121v-5.814l-11.628-17.441h40.697c6.396 0 11.628-5.233 11.628-11.628v-69.7678c0-6.3954-5.232-11.6279-11.628-11.6279zm0 69.7677h-104.6509v-58.1398h104.6509z" fill="#fbfbfb"/></svg>

<svg width="200" height="200" viewBox="0 0 200 200" fill="none" xmlns="http://www.w3.org/2000/svg">
<rect width="200" height="200" rx="20" fill="#B9D053"/>
<path d="M152.791 41.3953H48.1401C41.7448 41.3953 36.5122 46.6278 36.5122 53.0232V122.791C36.5122 129.186 41.7448 134.419 48.1401 134.419H88.8378L77.2099 151.86V157.674H123.722V151.86L112.094 134.419H152.791C159.187 134.419 164.419 129.186 164.419 122.791V53.0232C164.419 46.6278 159.187 41.3953 152.791 41.3953ZM152.791 111.163H48.1401V53.0232H152.791V111.163Z" fill="#FBFBFB"/>
</svg>
